X: 14542
T: Gan Ainm
R: slip jig
M: 9/8
K: Cdorian
c>dc c2B AGF|B2A B2c d3|c>dc c2B ABc|f2e d2c B3:|
dfd f2d cAc|dfd dfd e3|dfd f2d cde|f2e d2c B3:|

